static/images/jetpack/illustration-jetpack-scan.svg

<svg height="60" viewBox="0 0 51 60" width="51" xmlns="http://www.w3.org/2000/svg"><g fill="none" fill-rule="evenodd"><path d="m2.19051892 25.0759059c0-13.7936471 10.91758378-24.97567061 24.38502968-24.97567061 13.4675838 0 24.3851676 11.18202351 24.3851676 24.97567061 0 13.793647-10.9175838 24.9756706-24.3851676 24.9756706-13.4674459 0-24.38502968-11.1820236-24.38502968-24.9756706" fill="#ebf0f1"/><path d="m8.06888919 38.4074824 9.72914591-9.9649412c-1.3741054-2.1344471-2.1783892-4.6884706-2.1783892-7.4359059 0-7.4745882 5.9161379-13.53388236 13.2139622-13.53388236s13.2138243 6.05929416 13.2138243 13.53388236-5.916 13.5338823-13.2138243 13.5338823c-2.6824622 0-5.1760865-.8236235-7.2600567-2.2311529l-9.7292838 9.9649412zm30.20316491-17.4008471c0-5.3304-4.2341027-9.6670588-9.438446-9.6670588-5.2044811 0-9.4384459 4.3366588-9.4384459 9.6670588s4.2339648 9.6670588 9.4384459 9.6670588c5.2043433 0 9.438446-4.3366588 9.438446-9.6670588z" fill="#212b35"/><path d="m18.9017027 27.3122824 3.7753784 3.8668235-9.729146 9.9648-3.77537834-3.8668235z" fill="#121c23"/><path d="m42.0474324 21.0066353c0 7.4745882-5.916 13.5340235-13.2138243 13.5340235s-13.2139622-6.0594353-13.2139622-13.5340235 5.9161379-13.53388236 13.2139622-13.53388236 13.2138243 6.05929416 13.2138243 13.53388236" fill="#212b35"/><path d="m19.3950243 21.0066353c0-5.3390118 4.2258325-9.6670588 9.4385838-9.6670588 5.2127514 0 9.438446 4.328047 9.438446 9.6670588s-4.2256946 9.6670588-9.438446 9.6670588c-5.2127513 0-9.4385838-4.328047-9.4385838-9.6670588" fill="#da3c3e"/><path d="m27.7047162 24.4752h2.257646v2.3124706h-2.257646z" fill="#f1b0ad"/><path d="m27.1402703 15.2256h3.3865378l-.5644459 6.9372706h-2.257646z" fill="#f1b0ad"/><g fill="#e2b33c"><path d="m15.7328108 49.8890824h-4.0772432v-18.7534589c0-1.1531294.9127621-2.0878588 2.0386216-2.0878588 1.1258594 0 2.0386216.9347294 2.0386216 2.0878588z"/><path d="m15.7328108 39.1794353-4.0772432-.504v-5.2956706l-6.68761625 3.5301177c-1.3016027.6871058-2.09858108 2.0823529-2.04551351 3.5812235l.26809459 10.1608941 5.44073514 4.9720941 7.10154323-6.5617412z"/><path d="m22.2173919 34.1011765c-.6836757-.6751059-1.7848622-.623153-2.4564081.0646588l-5.0223973 5.1440471h-1.0443973v1.0696941l-.8051108.8244706-1.2201406-1.2496942-9.4442351 9.6731295 7.9475919 8.1402352 7.9485568-8.1410823c.9576972-.9808941 1.4958162-2.3113412 1.4958162-3.6986824v-5.2386353c0-.8833411.342527-1.7304.9523216-2.3549647l1.6715594-1.7119058c.6810568-.6976942.6733379-1.8336-.0231567-2.5212706"/><path d="m10.1722946 57.7675765-7.9475919-8.1400941-2.13414324 2.1858352 7.94772973 8.1400942z"/></g><path d="m15.7328108 38.2915765v7.4030117l1.9884487-9.4396235z" fill="#dd8136"/><path d="m11.6555676 33.3797647 1.7127729.4447059.3258487 3.8064-.5811243 3.3439059-3.28260814 3.5271529-1.42427838-4.2192 2.64400542-6.0546353z" fill="#e2b33c"/></g></svg>

<?xml version="1.0" encoding="UTF-8" standalone="no"?>
<svg width="51px" height="60px" viewBox="0 0 51 60" version="1.1" xmlns="http://www.w3.org/2000/svg" xmlns:xlink="http://www.w3.org/1999/xlink">
    <g id="Page-1" stroke="none" stroke-width="1" fill="none" fill-rule="evenodd">
        <g>
            <path d="M2.19051892,25.0759059 C2.19051892,11.2822588 13.1081027,0.100235294 26.5755486,0.100235294 C40.0431324,0.100235294 50.9607162,11.2822588 50.9607162,25.0759059 C50.9607162,38.8695529 40.0431324,50.0515765 26.5755486,50.0515765 C13.1081027,50.0515765 2.19051892,38.8695529 2.19051892,25.0759059" id="Fill-1" fill="#EBF0F1"></path>
            <path d="M8.06888919,38.4074824 L17.7980351,28.4425412 C16.4239297,26.3080941 15.6196459,23.7540706 15.6196459,21.0066353 C15.6196459,13.5320471 21.5357838,7.47275294 28.8336081,7.47275294 C36.1314324,7.47275294 42.0474324,13.5320471 42.0474324,21.0066353 C42.0474324,28.4812235 36.1314324,34.5405176 28.8336081,34.5405176 C26.1511459,34.5405176 23.6575216,33.7168941 21.5735514,32.3093647 L11.8442676,42.2743059 L8.06888919,38.4074824 L8.06888919,38.4074824 Z M38.2720541,21.0066353 C38.2720541,15.6762353 34.0379514,11.3395765 28.8336081,11.3395765 C23.629127,11.3395765 19.3951622,15.6762353 19.3951622,21.0066353 C19.3951622,26.3370353 23.629127,30.6736941 28.8336081,30.6736941 C34.0379514,30.6736941 38.2720541,26.3370353 38.2720541,21.0066353 L38.2720541,21.0066353 Z" id="Fill-2" fill="#212B35"></path>
            <path d="M18.9017027,27.3122824 L22.6770811,31.1791059 L12.9479351,41.1439059 L9.17255676,37.2770824 L18.9017027,27.3122824" id="Fill-3" fill="#121C23"></path>
            <path d="M42.0474324,21.0066353 C42.0474324,28.4812235 36.1314324,34.5406588 28.8336081,34.5406588 C21.5357838,34.5406588 15.6196459,28.4812235 15.6196459,21.0066353 C15.6196459,13.5320471 21.5357838,7.47275294 28.8336081,7.47275294 C36.1314324,7.47275294 42.0474324,13.5320471 42.0474324,21.0066353" id="Fill-4" fill="#212B35"></path>
            <path d="M19.3950243,21.0066353 C19.3950243,15.6676235 23.6208568,11.3395765 28.8336081,11.3395765 C34.0463595,11.3395765 38.2720541,15.6676235 38.2720541,21.0066353 C38.2720541,26.3456471 34.0463595,30.6736941 28.8336081,30.6736941 C23.6208568,30.6736941 19.3950243,26.3456471 19.3950243,21.0066353" id="Fill-5" fill="#DA3C3E"></path>
            <path d="M27.7047162,24.4752 L29.9623622,24.4752 L29.9623622,26.7876706 L27.7047162,26.7876706 L27.7047162,24.4752 Z" id="Fill-6" fill="#F1B0AD"></path>
            <path d="M27.1402703,15.2256 L30.5268081,15.2256 L29.9623622,22.1628706 L27.7047162,22.1628706 L27.1402703,15.2256" id="Fill-7" fill="#F1B0AD"></path>
            <path d="M15.7328108,49.8890824 L11.6555676,49.8890824 L11.6555676,31.1356235 C11.6555676,29.9824941 12.5683297,29.0477647 13.6941892,29.0477647 C14.8200486,29.0477647 15.7328108,29.9824941 15.7328108,31.1356235 L15.7328108,49.8890824" id="Fill-8" fill="#E2B33C"></path>
            <path d="M15.7328108,39.1794353 L11.6555676,38.6754353 L11.6555676,33.3797647 L4.96795135,36.9098824 C3.66634865,37.5969882 2.86937027,38.9922353 2.92243784,40.4911059 L3.19053243,50.652 L8.63126757,55.6240941 L15.7328108,49.0623529 L15.7328108,39.1794353" id="Fill-9" fill="#E2B33C"></path>
            <path d="M22.2173919,34.1011765 C21.5337162,33.4260706 20.4325297,33.4780235 19.7609838,34.1658353 L14.7385865,39.3098824 L13.6941892,39.3098824 L13.6941892,40.3795765 L12.8890784,41.2040471 L11.6689378,39.9543529 L2.2247027,49.6274824 L10.1722946,57.7677176 L18.1208514,49.6266353 C19.0785486,48.6457412 19.6166676,47.3152941 19.6166676,45.9279529 L19.6166676,40.6893176 C19.6166676,39.8059765 19.9591946,38.9589176 20.5689892,38.3343529 L22.2405486,36.6224471 C22.9216054,35.9247529 22.9138865,34.7888471 22.2173919,34.1011765" id="Fill-10" fill="#E2B33C"></path>
            <path d="M10.1722946,57.7675765 L2.2247027,49.6274824 L0.0905594595,51.8133176 L8.03828919,59.9534118 L10.1722946,57.7675765" id="Fill-11" fill="#E2B33C"></path>
            <path d="M15.7328108,38.2915765 L15.7328108,45.6945882 L17.7212595,36.2549647 L15.7328108,38.2915765" id="Fill-12" fill="#DD8136"></path>
            <path d="M11.6555676,33.3797647 L13.3683405,33.8244706 L13.6941892,37.6308706 L13.1130649,40.9747765 L9.83045676,44.5019294 L8.40617838,40.2827294 L11.0501838,34.2280941 L11.6555676,33.3797647" id="Fill-13" fill="#E2B33C"></path>
        </g>
    </g>
</svg>
